assets/images/favicon.svg

<svg width="32" height="32" viewBox="0 0 32 32" fill="none" xmlns="http://www.w3.org/2000/svg">
<g clip-path="url(#clip0_73_674)">
<path d="M32 0H0V32H32V0Z" fill="#D4A2F0"/>
<path d="M12.3037 23.5921C12.1956 23.6551 12.1021 23.7095 12.003 23.7674C11.9741 23.7283 11.9502 23.7013 11.9319 23.6714C11.6175 23.1543 11.1695 22.8597 10.5544 22.9095C9.95251 22.9582 9.56749 23.3336 9.35467 23.8669C9.08343 24.5465 9.152 25.2003 9.66349 25.7559C10.3375 26.4884 11.4108 26.3528 11.9025 25.4857C11.9304 25.4364 11.9578 25.3862 11.997 25.315C12.0894 25.3704 12.1829 25.4095 12.2504 25.4756C12.2763 25.501 12.2631 25.6015 12.2331 25.6437C11.8938 26.1313 11.4326 26.4178 10.8328 26.462C9.87479 26.5326 8.99149 25.8738 8.81321 24.957C8.62629 23.9975 9.18502 23.0339 10.0968 22.7418C10.8709 22.494 11.7806 22.8063 12.2397 23.4778C12.2601 23.5073 12.2748 23.5403 12.3037 23.5921Z" fill="white"/>
<path d="M15.2472 25.1495C15.2462 25.8804 14.657 26.4691 13.9291 26.467C13.1987 26.465 12.6202 25.8783 12.6212 25.1413C12.6222 24.4094 13.2119 23.8273 13.9454 23.8334C14.6723 23.8395 15.2483 24.4216 15.2472 25.149V25.1495ZM13.0606 25.1449C13.059 25.4857 13.1683 25.7829 13.4192 26.019C13.7117 26.2943 14.1323 26.2994 14.4305 26.0358C14.9105 25.6117 14.9486 24.8061 14.5107 24.3373C14.1882 23.9919 13.6985 23.9878 13.3699 24.3297C13.1515 24.5572 13.0611 24.8345 13.0606 25.1449Z" fill="white"/>
<path d="M22.8617 25.5192C22.9826 25.5639 23.0994 25.6071 23.2223 25.6528C23.166 25.7869 23.0928 25.9027 23.0029 26.0079C22.6362 26.4361 22.0277 26.5834 21.507 26.3705C20.9818 26.1562 20.6471 25.6193 20.6867 25.0535C20.7258 24.4856 21.1246 24.0036 21.6701 23.8629C22.2563 23.712 22.8719 23.9746 23.1563 24.4942C23.1827 24.543 23.1848 24.5841 23.1609 24.6324C23.0877 24.7807 22.978 24.897 22.8485 24.995C22.6088 25.1769 22.3375 25.2947 22.0566 25.3968C21.8596 25.4684 21.6676 25.5528 21.4766 25.6396C21.4151 25.6676 21.3633 25.7189 21.3115 25.7641C21.2988 25.7752 21.2917 25.8118 21.3003 25.825C21.5604 26.2309 21.9642 26.3375 22.3167 26.1816C22.5656 26.0714 22.717 25.8667 22.8206 25.6223C22.8343 25.5898 22.8475 25.5573 22.8632 25.5192H22.8617ZM21.183 25.5959C21.2333 25.535 21.2749 25.4776 21.3232 25.4263C21.504 25.2333 21.7295 25.1144 21.9799 25.0408C22.2517 24.9605 22.5062 24.8422 22.749 24.6974C22.7713 24.6842 22.7926 24.669 22.8221 24.6497C22.7764 24.5689 22.7398 24.4891 22.6905 24.4185C22.369 23.9553 21.7742 23.9096 21.4131 24.3124C21.1876 24.5638 21.0931 24.8599 21.1027 25.1931C21.1068 25.3298 21.1312 25.4623 21.1825 25.597L21.183 25.5959Z" fill="white"/>
<path d="M20.1021 25.5192C20.223 25.5639 20.3398 25.6071 20.4627 25.6528C20.4063 25.7869 20.3332 25.9027 20.2433 26.0079C19.8766 26.4361 19.2681 26.5834 18.7474 26.3705C18.2222 26.1562 17.8875 25.6193 17.9271 25.0535C17.9662 24.4856 18.365 24.0036 18.9105 23.8629C19.4966 23.712 20.1123 23.9746 20.3967 24.4942C20.4231 24.543 20.4251 24.5841 20.4013 24.6324C20.3281 24.7807 20.2184 24.897 20.0889 24.995C19.8491 25.1769 19.5779 25.2947 19.297 25.3968C19.0999 25.4684 18.9079 25.5528 18.717 25.6396C18.6555 25.6676 18.6037 25.7189 18.5519 25.7641C18.5392 25.7752 18.5321 25.8118 18.5407 25.825C18.8008 26.2309 19.2046 26.3375 19.5571 26.1816C19.806 26.0714 19.9573 25.8667 20.061 25.6223C20.0747 25.5898 20.0879 25.5573 20.1036 25.5192H20.1021ZM18.4229 25.5959C18.4731 25.535 18.5148 25.4776 18.563 25.4263C18.7439 25.2333 18.9694 25.1144 19.2198 25.0408C19.4916 24.9605 19.746 24.8422 19.9888 24.6974C20.0112 24.6842 20.0325 24.669 20.062 24.6497C20.0163 24.5689 19.9797 24.4891 19.9304 24.4185C19.6089 23.9553 19.0141 23.9096 18.653 24.3124C18.4274 24.5638 18.333 24.8599 18.3426 25.1931C18.3467 25.3298 18.371 25.4623 18.4223 25.597L18.4229 25.5959Z" fill="white"/>
<path d="M17.7691 24.0218C17.7463 24.0015 17.7117 23.9949 17.666 23.9964C17.5614 24 17.4552 24.0071 17.3526 23.9914C17.3095 23.9848 17.2439 23.9243 17.2419 23.8852C17.2333 23.7186 17.2312 23.5495 17.251 23.3839C17.2815 23.1319 17.4182 23.0121 17.663 23.0029C17.7092 23.0014 17.7453 22.9948 17.7691 22.9745V22.7845C17.7463 22.7657 17.7123 22.7591 17.667 22.7571C17.153 22.7363 16.8066 23.0593 16.803 23.5743C16.8 24.0137 16.8025 24.4536 16.8025 24.893C16.8025 25.3638 16.801 25.8352 16.8046 26.306C16.8046 26.3573 16.829 26.4498 16.8518 26.4528C16.9641 26.4676 17.0829 26.4747 17.1906 26.4488C17.2206 26.4417 17.2333 26.3121 17.2338 26.2385C17.2373 25.6315 17.2399 25.0245 17.2328 24.417C17.2312 24.2712 17.279 24.2179 17.4217 24.2326C17.5045 24.2413 17.5893 24.2316 17.6726 24.2347C17.7153 24.2362 17.7478 24.2291 17.7691 24.2093V24.0213V24.0218Z" fill="white"/>
<path d="M16.4444 23.999C16.4378 23.999 16.4333 23.9964 16.4262 23.9964C16.3164 23.9995 16.2047 24.0066 16.097 23.9909C16.0554 23.9848 15.9944 23.9233 15.9909 23.8822C15.9777 23.742 15.9812 23.5997 15.9873 23.459C16.0005 23.1655 16.1351 23.0243 16.4267 23.0034C16.4333 23.0034 16.4378 23.0009 16.4444 22.9999V22.7677C16.4414 22.7667 16.4378 22.7637 16.4348 22.7637C15.9436 22.7048 15.5545 23.0552 15.552 23.5525C15.55 23.9975 15.552 24.4419 15.552 24.8869C15.552 25.3633 15.5505 25.8392 15.5545 26.3157C15.5545 26.3655 15.5845 26.4559 15.6079 26.4584C15.7201 26.4706 15.8395 26.4747 15.9467 26.4457C15.9766 26.4376 15.9832 26.306 15.9837 26.2314C15.9868 25.6193 15.9883 25.0067 15.9837 24.3947C15.9827 24.2712 16.0223 24.2235 16.1458 24.2337C16.2392 24.2413 16.3363 24.2463 16.4272 24.2296C16.4328 24.2286 16.4389 24.225 16.445 24.2225V24L16.4444 23.999Z" fill="white"/>
<path d="M21.4563 21.3044C21.4608 21.3008 21.4654 21.2973 21.47 21.2932C21.762 21.0011 22.112 20.7614 22.4356 20.5074C22.5011 20.4561 22.5956 20.5156 22.5742 20.5963C22.5544 20.672 22.531 20.737 22.5133 20.7675C22.3121 21.122 22.1923 21.5543 21.8895 21.8428C21.7778 21.949 21.629 22.0262 21.475 22.018C21.3542 22.0114 21.2419 21.9545 21.1413 21.887C20.349 21.3587 20.319 20.3642 20.381 19.5063C20.4008 19.231 20.451 18.9582 20.4328 18.6606C20.3764 18.7642 20.323 18.8698 20.2636 18.9714C19.9152 19.5677 19.6439 20.2077 19.2706 20.7898C18.9023 21.3638 18.3898 22.1384 17.5868 22.0429C17.3313 22.0124 17.0966 21.887 16.9092 21.7107C16.3571 21.1916 16.2499 20.3916 16.2956 19.68C16.4526 17.2546 17.3882 14.9785 18.6128 12.9041C18.6855 12.7812 18.7662 12.6629 18.8582 12.5542C18.9867 12.4023 19.1609 12.2392 19.3707 12.2017C19.5154 12.1757 19.6785 12.2194 19.7669 12.3368C19.8603 12.4607 19.8522 12.6349 19.8034 12.7822C19.6957 13.1088 19.5144 13.4171 19.3681 13.7275C19.3539 13.7575 19.325 13.7991 19.3041 13.8047C18.9643 13.8977 18.8597 14.209 18.7434 14.4691C18.2852 15.4951 17.8941 16.5537 17.6223 17.6452C17.3547 18.7205 17.1195 19.8415 17.3283 20.9483C17.342 21.0199 17.3628 21.0997 17.4268 21.1347C17.5131 21.1825 17.6168 21.12 17.6924 21.0565C18.3101 20.5374 18.7017 19.8136 19.0771 19.1142C19.5002 18.3253 19.902 17.5248 20.2768 16.7116C21.3333 14.4183 22.3482 12.1062 23.3879 9.8047C23.5784 9.38311 23.7994 8.97524 24.0173 8.56686C24.1615 8.29613 24.4881 8.15086 24.7203 8.27378C24.9813 8.41194 25.0189 8.66743 24.9559 8.93511C24.93 9.04635 24.8762 9.15149 24.8345 9.25917C23.7059 12.16 22.4447 15.0141 21.7214 18.0577C21.5949 18.59 21.4451 19.1167 21.347 19.6556C21.2983 19.9243 21.2617 20.1961 21.2495 20.4693C21.2383 20.7233 21.2282 21.0154 21.3074 21.2602C21.3171 21.2897 21.3308 21.3211 21.3587 21.3328C21.3917 21.3465 21.4268 21.3272 21.4557 21.3044H21.4563Z" fill="white"/>
<path d="M28.1737 9.53041C27.8319 9.1901 27.7882 8.59276 28.0772 8.20622C28.4577 7.69778 29.2089 7.64952 29.7051 7.25283C27.1802 7.16343 24.64 7.51695 22.2349 8.29156C21.6386 8.48356 21.0494 8.70248 20.4861 8.97727C20.2169 9.10883 19.9492 9.25003 19.6988 9.41511C19.4677 9.56749 19.2046 9.70768 19.0263 9.92406C18.9745 9.98705 18.9298 10.0577 18.911 10.1369C18.8439 10.4132 19.1502 10.6342 19.1401 10.9095C18.8668 10.8328 18.6367 10.6154 18.5453 10.3462C18.3365 9.73511 18.8795 9.19264 19.3026 8.83251C19.7877 8.42006 20.3561 8.11581 20.9387 7.8654C22.5422 7.17511 24.2784 6.84851 26.0109 6.63619C27.519 6.4513 29.0585 6.35073 30.5504 6.63822C30.7154 6.67022 30.8846 6.70883 31.0212 6.80686C31.1578 6.90489 31.2543 7.07708 31.2147 7.24064C31.1741 7.40876 31.011 7.51441 30.8551 7.5901C30.1669 7.92279 29.3679 8.00051 28.7116 8.39264C28.5125 8.51149 28.3256 8.66286 28.2113 8.86451C28.097 9.06616 28.066 9.32521 28.1742 9.53041H28.1737Z" fill="white"/>
<path d="M17.4832 7.47632C17.5406 7.27873 17.5985 7.07149 17.5192 6.86883C17.4801 6.76927 17.4009 6.68495 17.2988 6.65346C17.0403 6.57422 16.8427 6.83733 16.7228 7.06489C16.1905 8.07518 15.8857 9.13321 15.5241 10.2161C15.2914 10.9115 15.1126 11.5713 14.942 12.2839C14.7891 12.9224 14.5366 13.6122 14.2385 14.1983C14.143 14.3858 13.9876 14.5356 13.8027 14.6362C13.0961 15.0182 12.0391 15.555 11.2381 15.9401C11.1589 15.9782 11.0715 15.907 11.0928 15.8217C11.5693 13.922 12.0681 11.6968 11.9822 9.87784C11.9462 9.11086 11.8248 8.31898 11.5733 7.59772C11.4027 7.10857 11.0456 6.71543 10.5275 6.60521C10.0424 6.50159 9.52787 6.6367 9.0941 6.85714C7.91619 7.45702 7.22743 8.87822 7.31581 10.174C7.33511 10.4594 7.39403 10.7439 7.50476 11.0085C7.58654 11.203 7.75924 11.6201 8.00711 11.6312C8.00914 11.6185 8.00457 11.6084 7.99898 11.5967C7.37524 10.3644 7.72927 8.79644 8.86349 7.97308C8.98032 7.88826 9.10425 7.81359 9.23429 7.7506C9.3887 7.67543 9.55175 7.61752 9.71937 7.57943C10.4264 7.41841 10.6149 8.14375 10.6768 8.73295C10.9242 11.0852 10.5199 13.3704 10.0257 15.6668C9.99619 15.8029 9.9586 15.9385 9.89714 16.0635C9.87886 16.1006 9.85549 16.1341 9.82248 16.158C9.77727 16.19 9.71987 16.1991 9.66502 16.2042C9.14184 16.256 8.6141 16.0543 8.23264 15.6973C8.18997 15.6571 8.1473 15.614 8.09295 15.5916C7.93041 15.5236 7.94006 15.7064 7.97206 15.8116C8.02083 15.9736 8.15441 16.1305 8.26311 16.258C8.50743 16.5455 8.81829 16.7771 9.16521 16.9255C9.2927 16.9798 9.52279 17.0433 9.56292 17.1926C9.60305 17.3399 9.46591 17.5644 9.42527 17.7026C9.35467 17.9418 9.27848 18.179 9.19873 18.4152C8.88279 19.3498 8.50946 20.2646 8.19657 21.2008C8.15492 21.3252 8.18235 21.469 8.28191 21.5548C8.448 21.6985 8.62527 21.5777 8.74413 21.4507C8.99911 21.1789 9.16673 20.8386 9.32673 20.5018C9.72394 19.6658 10.0952 18.818 10.4406 17.9591C10.493 17.8291 10.5458 17.698 10.6042 17.5695C10.7586 17.2312 11.0298 16.9595 11.3676 16.8036C11.5845 16.7035 11.7994 16.6009 12.0142 16.4998C12.638 16.2077 13.4761 15.8004 14.1745 15.4702C13.854 17.6244 13.8814 19.7465 14.5422 21.8494C14.5844 21.983 14.72 22.0764 14.8566 22.0465C15.0481 22.0043 15.0512 21.7712 15.0273 21.5944C14.7693 19.6861 14.8323 17.7351 15.2137 15.8476C15.2711 15.5637 15.3534 15.2543 15.5926 15.0908C15.7196 15.0044 15.9091 14.9079 15.8608 14.7622C15.841 14.7017 15.7831 14.6636 15.7374 14.6194C15.5144 14.402 15.585 14.0348 15.6719 13.7356C16.2763 11.6495 16.8808 9.56343 17.4852 7.47683L17.4832 7.47632Z" fill="white"/>
<path d="M6.29638 20.0132L3.15378 16.8706C2.67327 16.3901 2.67327 15.6079 3.15378 15.1274L6.29638 11.9848L6.848 12.5364L3.7054 15.679C3.52914 15.8557 3.52914 16.1427 3.7054 16.319L6.848 19.4616L6.29638 20.0132Z" fill="white"/>
<path d="M19.4621 6.848L16.3195 3.7054C16.1432 3.52914 15.8557 3.52914 15.6795 3.7054L12.5369 6.848L11.9853 6.29638L15.1279 3.15378C15.6084 2.67327 16.3906 2.67327 16.8706 3.15378L20.0132 6.29638L19.4616 6.848H19.4621Z" fill="white"/>
<path d="M25.7031 20.0132L25.1515 19.4616L28.2941 16.319C28.4703 16.1422 28.4703 15.8552 28.2941 15.679L25.1515 12.5364L25.7031 11.9848L28.8457 15.1274C29.3262 15.6079 29.3262 16.3896 28.8457 16.8706L25.7031 20.0132Z" fill="white"/>
<path d="M15.9995 29.2058C15.6703 29.2058 15.361 29.0778 15.1279 28.8447L14.0983 27.8151L14.6499 27.2635L15.6795 28.2931C15.8557 28.4693 16.1432 28.4693 16.3195 28.2931L17.3491 27.2635L17.9007 27.8151L16.8711 28.8447C16.6385 29.0773 16.3286 29.2058 15.9995 29.2058Z" fill="white"/>
</g>
<defs>
<clipPath id="clip0_73_674">
<rect width="32" height="32" rx="4" fill="white"/>
</clipPath>
</defs>
</svg>

<?xml version="1.0" encoding="UTF-8"?>
<svg id="Layer_1" xmlns="http://www.w3.org/2000/svg" xmlns:xlink="http://www.w3.org/1999/xlink" version="1.1" viewBox="0 0 32 32">
  <!-- Generator: Adobe Illustrator 29.5.1, SVG Export Plug-In . SVG Version: 2.1.0 Build 141)  -->
  <defs>
    <style>
      .st0 {
        fill: none;
      }

      .st1 {
        fill: #d4a2f0;
      }

      .st2 {
        fill: #fff;
      }

      .st3 {
        clip-path: url(#clippath);
      }
    </style>
    <clipPath id="clippath">
      <rect class="st0" width="32" height="32" rx="4" ry="4"/>
    </clipPath>
  </defs>
  <g class="st3">
    <g>
      <path class="st1" d="M32,0H0v32h32V0Z"/>
      <g>
        <path class="st2" d="M12.3,23.59c-.11.06-.2.12-.3.18-.03-.04-.05-.07-.07-.1-.31-.52-.76-.81-1.38-.76-.6.05-.99.42-1.2.96-.27.68-.2,1.33.31,1.89.67.73,1.75.6,2.24-.27.03-.05.06-.1.09-.17.09.06.19.09.25.16.03.03.01.13-.02.17-.34.49-.8.77-1.4.82-.96.07-1.84-.59-2.02-1.5-.19-.96.37-1.92,1.28-2.22.77-.25,1.68.06,2.14.74.02.03.04.06.06.11Z"/>
        <path class="st2" d="M15.25,25.15c0,.73-.59,1.32-1.32,1.32-.73,0-1.31-.59-1.31-1.33,0-.73.59-1.31,1.32-1.31.73,0,1.3.59,1.3,1.32h0ZM13.06,25.14c0,.34.11.64.36.87.29.28.71.28,1.01.02.48-.42.52-1.23.08-1.7-.32-.35-.81-.35-1.14,0-.22.23-.31.5-.31.82Z"/>
        <path class="st2" d="M22.86,25.52c.12.04.24.09.36.13-.06.13-.13.25-.22.36-.37.43-.98.58-1.5.36-.53-.21-.86-.75-.82-1.32.04-.57.44-1.05.98-1.19.59-.15,1.2.11,1.49.63.03.05.03.09,0,.14-.07.15-.18.26-.31.36-.24.18-.51.3-.79.4-.2.07-.39.16-.58.24-.06.03-.11.08-.17.12-.01.01-.02.05-.01.06.26.41.66.51,1.02.36.25-.11.4-.31.5-.56.01-.03.03-.06.04-.1h0ZM21.18,25.6c.05-.06.09-.12.14-.17.18-.19.41-.31.66-.39.27-.08.53-.2.77-.34.02-.01.04-.03.07-.05-.05-.08-.08-.16-.13-.23-.32-.46-.92-.51-1.28-.11-.23.25-.32.55-.31.88,0,.14.03.27.08.4h0Z"/>
        <path class="st2" d="M20.1,25.52c.12.04.24.09.36.13-.06.13-.13.25-.22.36-.37.43-.98.58-1.5.36-.53-.21-.86-.75-.82-1.32.04-.57.44-1.05.98-1.19.59-.15,1.2.11,1.49.63.03.05.03.09,0,.14-.07.15-.18.26-.31.36-.24.18-.51.3-.79.4-.2.07-.39.16-.58.24-.06.03-.11.08-.17.12-.01.01-.02.05-.01.06.26.41.66.51,1.02.36.25-.11.4-.31.5-.56.01-.03.03-.06.04-.1h0ZM18.42,25.6c.05-.06.09-.12.14-.17.18-.19.41-.31.66-.39.27-.08.53-.2.77-.34.02-.01.04-.03.07-.05-.05-.08-.08-.16-.13-.23-.32-.46-.92-.51-1.28-.11-.23.25-.32.55-.31.88,0,.14.03.27.08.4h0Z"/>
        <path class="st2" d="M17.77,24.02s-.06-.03-.1-.03c-.1,0-.21.01-.31,0-.04,0-.11-.07-.11-.11,0-.17-.01-.34,0-.5.03-.25.17-.37.41-.38.05,0,.08,0,.11-.03v-.19s-.06-.03-.1-.03c-.51-.02-.86.3-.86.82,0,.44,0,.88,0,1.32,0,.47,0,.94,0,1.41,0,.05.02.14.05.15.11.01.23.02.34,0,.03,0,.04-.14.04-.21,0-.61,0-1.21,0-1.82,0-.15.05-.2.19-.18.08,0,.17,0,.25,0,.04,0,.08,0,.1-.03v-.19h0Z"/>
        <path class="st2" d="M16.44,24s-.01,0-.02,0c-.11,0-.22.01-.33,0-.04,0-.1-.07-.11-.11-.01-.14,0-.28,0-.42.01-.29.15-.43.44-.46,0,0,.01,0,.02,0v-.23s0,0,0,0c-.49-.06-.88.29-.88.79,0,.44,0,.89,0,1.33,0,.48,0,.95,0,1.43,0,.05.03.14.05.14.11.01.23.02.34-.01.03,0,.04-.14.04-.21,0-.61,0-1.22,0-1.84,0-.12.04-.17.16-.16.09,0,.19.01.28,0,0,0,.01,0,.02,0v-.22h0Z"/>
        <path class="st2" d="M21.46,21.3s0,0,.01-.01c.29-.29.64-.53.97-.79.07-.05.16,0,.14.09-.02.08-.04.14-.06.17-.2.35-.32.79-.62,1.08-.11.11-.26.18-.41.18-.12,0-.23-.06-.33-.13-.79-.53-.82-1.52-.76-2.38.02-.28.07-.55.05-.85-.06.1-.11.21-.17.31-.35.6-.62,1.24-.99,1.82-.37.57-.88,1.35-1.68,1.25-.26-.03-.49-.16-.68-.33-.55-.52-.66-1.32-.61-2.03.16-2.43,1.09-4.7,2.32-6.78.07-.12.15-.24.25-.35.13-.15.3-.32.51-.35.14-.03.31.02.4.14.09.12.09.3.04.45-.11.33-.29.63-.44.95-.01.03-.04.07-.06.08-.34.09-.44.4-.56.66-.46,1.03-.85,2.08-1.12,3.18-.27,1.08-.5,2.2-.29,3.3.01.07.03.15.1.19.09.05.19-.01.27-.08.62-.52,1.01-1.24,1.38-1.94.42-.79.82-1.59,1.2-2.4,1.06-2.29,2.07-4.61,3.11-6.91.19-.42.41-.83.63-1.24.14-.27.47-.42.7-.29.26.14.3.39.24.66-.03.11-.08.22-.12.32-1.13,2.9-2.39,5.75-3.11,8.8-.13.53-.28,1.06-.37,1.6-.05.27-.09.54-.1.81-.01.25-.02.55.06.79,0,.03.02.06.05.07.03.01.07,0,.1-.03h0Z"/>
        <path class="st2" d="M28.17,9.53c-.34-.34-.39-.94-.1-1.32.38-.51,1.13-.56,1.63-.95-2.52-.09-5.07.26-7.47,1.04-.6.19-1.19.41-1.75.69-.27.13-.54.27-.79.44-.23.15-.49.29-.67.51-.05.06-.1.13-.12.21-.07.28.24.5.23.77-.27-.08-.5-.29-.59-.56-.21-.61.33-1.15.76-1.51.49-.41,1.05-.72,1.64-.97,1.6-.69,3.34-1.02,5.07-1.23,1.51-.18,3.05-.29,4.54,0,.17.03.33.07.47.17s.23.27.19.43c-.04.17-.2.27-.36.35-.69.33-1.49.41-2.14.8-.2.12-.39.27-.5.47-.11.2-.15.46-.04.67h0Z"/>
        <path class="st2" d="M17.48,7.48c.06-.2.12-.4.04-.61-.04-.1-.12-.18-.22-.22-.26-.08-.46.18-.58.41-.53,1.01-.84,2.07-1.2,3.15-.23.7-.41,1.36-.58,2.07-.15.64-.41,1.33-.7,1.91-.1.19-.25.34-.44.44-.71.38-1.76.92-2.56,1.3-.08.04-.17-.03-.15-.12.48-1.9.98-4.12.89-5.94-.04-.77-.16-1.56-.41-2.28-.17-.49-.53-.88-1.05-.99-.49-.1-1,.03-1.43.25-1.18.6-1.87,2.02-1.78,3.32.02.29.08.57.19.83.08.19.25.61.5.62,0-.01,0-.02,0-.03-.62-1.23-.27-2.8.86-3.62.12-.08.24-.16.37-.22.15-.08.32-.13.49-.17.71-.16.9.56.96,1.15.25,2.35-.16,4.64-.65,6.93-.03.14-.07.27-.13.4-.02.04-.04.07-.07.09-.05.03-.1.04-.16.05-.52.05-1.05-.15-1.43-.51-.04-.04-.09-.08-.14-.11-.16-.07-.15.11-.12.22.05.16.18.32.29.45.24.29.56.52.9.67.13.05.36.12.4.27.04.15-.1.37-.14.51-.07.24-.15.48-.23.71-.32.93-.69,1.85-1,2.79-.04.12-.01.27.09.35.17.14.34.02.46-.1.25-.27.42-.61.58-.95.4-.84.77-1.68,1.11-2.54.05-.13.11-.26.16-.39.15-.34.43-.61.76-.77.22-.1.43-.2.65-.3.62-.29,1.46-.7,2.16-1.03-.32,2.15-.29,4.28.37,6.38.04.13.18.23.31.2.19-.04.19-.28.17-.45-.26-1.91-.19-3.86.19-5.75.06-.28.14-.59.38-.76.13-.09.32-.18.27-.33-.02-.06-.08-.1-.12-.14-.22-.22-.15-.58-.07-.88.6-2.09,1.21-4.17,1.81-6.26h0Z"/>
        <path class="st2" d="M6.3,20.01l-3.14-3.14c-.48-.48-.48-1.26,0-1.74l3.14-3.14.55.55-3.14,3.14c-.18.18-.18.46,0,.64l3.14,3.14-.55.55Z"/>
        <path class="st2" d="M19.46,6.85l-3.14-3.14c-.18-.18-.46-.18-.64,0l-3.14,3.14-.55-.55,3.14-3.14c.48-.48,1.26-.48,1.74,0l3.14,3.14-.55.55h0Z"/>
        <path class="st2" d="M25.7,20.01l-.55-.55,3.14-3.14c.18-.18.18-.46,0-.64l-3.14-3.14.55-.55,3.14,3.14c.48.48.48,1.26,0,1.74l-3.14,3.14Z"/>
        <path class="st2" d="M16,29.21c-.33,0-.64-.13-.87-.36l-1.03-1.03.55-.55,1.03,1.03c.18.18.46.18.64,0l1.03-1.03.55.55-1.03,1.03c-.23.23-.54.36-.87.36Z"/>
      </g>
    </g>
  </g>
</svg>
